assets/icons/icon_photo.svg

<svg width="48" height="48" viewBox="0 0 48 48" fill="none" xmlns="http://www.w3.org/2000/svg">
<g clip-path="url(#clip0_2188_3122)">
<path d="M33.4301 26.9501C35.5401 25.4301 36.5401 22.6901 35.7001 20.0801C34.8501 17.4701 32.4301 15.8501 29.8301 15.8601C29.0301 13.3801 26.7401 11.5801 24.0001 11.5801C21.2601 11.5801 18.9701 13.3801 18.1701 15.8601C15.5701 15.8601 13.1501 17.4801 12.3001 20.0801C11.4501 22.6901 12.4601 25.4201 14.5701 26.9501C13.7601 29.4201 14.5601 32.2301 16.7701 33.8401C17.8501 34.6301 19.1001 35.0001 20.3401 35.0001C21.5801 35.0001 22.9301 34.5901 24.0001 33.8001C25.0701 34.5801 26.3601 35.0001 27.6601 35.0001C28.9601 35.0001 30.1501 34.6201 31.2301 33.8401C33.4501 32.2301 34.2401 29.4201 33.4301 26.9501ZM29.4701 31.4101C28.9401 31.8001 28.3101 32.0001 27.6601 32.0001C27.0101 32.0001 26.3201 31.7801 25.7701 31.3801L24.3501 30.3401C24.1401 30.1901 23.8501 30.1901 23.6401 30.3401L22.2201 31.3801C21.6701 31.7801 21.0001 32.0001 20.3301 32.0001C19.6601 32.0001 19.0501 31.8001 18.5201 31.4101C17.4201 30.6101 16.9701 29.2001 17.4101 27.8801L17.9601 26.2101C18.0401 25.9601 17.9601 25.6901 17.7401 25.5401L16.3201 24.5101C15.2001 23.7001 14.7301 22.2901 15.1501 21.0001C15.5701 19.7101 16.7701 18.8501 18.1601 18.8501H19.9201C20.1801 18.8501 20.4101 18.6901 20.4901 18.4401L21.0301 16.7701C21.4501 15.4601 22.6501 14.5701 24.0001 14.5701C25.3501 14.5701 26.5501 15.4501 26.9701 16.7701L27.5201 18.4401C27.6001 18.6901 27.8301 18.8501 28.0901 18.8501H29.8401C31.2201 18.8501 32.4201 19.7101 32.8401 21.0001C33.2601 22.2901 32.7901 23.7001 31.6701 24.5101L30.2501 25.5401C30.0401 25.6901 29.9501 25.9701 30.0301 26.2101L30.5801 27.8801C31.0101 29.1901 30.5601 30.6101 29.4701 31.4101Z" fill="black"/>
<path d="M23.9998 19.2202C21.4298 19.2202 19.3398 21.3102 19.3398 23.8802C19.3398 26.4502 21.4298 28.5402 23.9998 28.5402C26.5698 28.5402 28.6598 26.4502 28.6598 23.8802C28.6598 21.3102 26.5698 19.2202 23.9998 19.2202ZM23.9998 25.5502C23.0798 25.5502 22.3398 24.8002 22.3398 23.8902C22.3398 22.9802 23.0898 22.2302 23.9998 22.2302C24.9098 22.2302 25.6598 22.9802 25.6598 23.8902C25.6598 24.8002 24.9098 25.5502 23.9998 25.5502Z" fill="black"/>
<path d="M5.5 20C6.33 20 7 19.33 7 18.5V13.5C7 9.92 9.92 7 13.5 7H18.5C19.33 7 20 6.33 20 5.5C20 4.67 19.33 4 18.5 4H13.5C8.26 4 4 8.26 4 13.5V18.5C4 19.33 4.67 20 5.5 20Z" fill="black"/>
<path d="M34.5 4H29.5C28.67 4 28 4.67 28 5.5C28 6.33 28.67 7 29.5 7H34.5C38.08 7 41 9.92 41 13.5V18.5C41 19.33 41.67 20 42.5 20C43.33 20 44 19.33 44 18.5V13.5C44 8.26 39.74 4 34.5 4Z" fill="black"/>
<path d="M18.5 41H13.5C9.92 41 7 38.08 7 34.5V29.5C7 28.67 6.33 28 5.5 28C4.67 28 4 28.67 4 29.5V34.5C4 39.74 8.26 44 13.5 44H18.5C19.33 44 20 43.33 20 42.5C20 41.67 19.33 41 18.5 41Z" fill="black"/>
<path d="M42.5 28C41.67 28 41 28.67 41 29.5V34.5C41 38.08 38.08 41 34.5 41H29.5C28.67 41 28 41.67 28 42.5C28 43.33 28.67 44 29.5 44H34.5C39.74 44 44 39.74 44 34.5V29.5C44 28.67 43.33 28 42.5 28Z" fill="black"/>
</g>
<defs>
<clipPath id="clip0_2188_3122">
<rect width="48" height="48" fill="white"/>
</clipPath>
</defs>
</svg>

<?xml version="1.0" encoding="UTF-8"?>
<svg xmlns="http://www.w3.org/2000/svg" viewBox="0 0 48 48">
  <defs>
    <style>
      .cls-1 {
        fill: none;
        opacity: .2;
      }
    </style>
  </defs>
  <g id="guid">
    <rect class="cls-1" width="48" height="48"/>
    <rect class="cls-1" x="4" y="4" width="40" height="40"/>
  </g>
  <g id="Layer_2" data-name="Layer 2">
    <g>
      <path d="M33.43,26.95c2.11-1.52,3.11-4.26,2.27-6.87-.85-2.61-3.27-4.23-5.87-4.22h0c-.8-2.48-3.09-4.28-5.83-4.28s-5.03,1.8-5.83,4.28h0c-2.6,0-5.02,1.62-5.87,4.22-.85,2.61.16,5.34,2.27,6.87-.81,2.47-.01,5.28,2.2,6.89,1.08.79,2.33,1.16,3.57,1.16s2.59-.41,3.66-1.2c1.07.78,2.36,1.2,3.66,1.2s2.49-.38,3.57-1.16c2.22-1.61,3.01-4.42,2.2-6.89ZM29.47,31.41c-.53.39-1.16.59-1.81.59s-1.34-.22-1.89-.62l-1.42-1.04c-.21-.15-.5-.15-.71,0l-1.42,1.04c-.55.4-1.22.62-1.89.62s-1.28-.2-1.81-.59c-1.1-.8-1.55-2.21-1.11-3.53l.55-1.67c.08-.25,0-.52-.22-.67l-1.42-1.03c-1.12-.81-1.59-2.22-1.17-3.51.42-1.29,1.62-2.15,3.01-2.15h1.76c.26,0,.49-.16.57-.41l.54-1.67c.42-1.31,1.62-2.2,2.97-2.2s2.55.88,2.97,2.2l.55,1.67c.08.25.31.41.57.41h1.75c1.38,0,2.58.86,3,2.15.42,1.29-.05,2.7-1.17,3.51l-1.42,1.03c-.21.15-.3.43-.22.67l.55,1.67c.43,1.31-.02,2.73-1.11,3.53Z"/>
      <path d="M24,19.22c-2.57,0-4.66,2.09-4.66,4.66s2.09,4.66,4.66,4.66,4.66-2.09,4.66-4.66-2.09-4.66-4.66-4.66ZM24,25.55c-.92,0-1.66-.75-1.66-1.66s.75-1.66,1.66-1.66,1.66.75,1.66,1.66-.75,1.66-1.66,1.66Z"/>
      <path d="M5.5,20c.83,0,1.5-.67,1.5-1.5v-5c0-3.58,2.92-6.5,6.5-6.5h5c.83,0,1.5-.67,1.5-1.5s-.67-1.5-1.5-1.5h-5c-5.24,0-9.5,4.26-9.5,9.5v5c0,.83.67,1.5,1.5,1.5Z"/>
      <path d="M34.5,4h-5c-.83,0-1.5.67-1.5,1.5s.67,1.5,1.5,1.5h5c3.58,0,6.5,2.92,6.5,6.5v5c0,.83.67,1.5,1.5,1.5s1.5-.67,1.5-1.5v-5c0-5.24-4.26-9.5-9.5-9.5Z"/>
      <path d="M18.5,41h-5c-3.58,0-6.5-2.92-6.5-6.5v-5c0-.83-.67-1.5-1.5-1.5s-1.5.67-1.5,1.5v5c0,5.24,4.26,9.5,9.5,9.5h5c.83,0,1.5-.67,1.5-1.5s-.67-1.5-1.5-1.5Z"/>
      <path d="M42.5,28c-.83,0-1.5.67-1.5,1.5v5c0,3.58-2.92,6.5-6.5,6.5h-5c-.83,0-1.5.67-1.5,1.5s.67,1.5,1.5,1.5h5c5.24,0,9.5-4.26,9.5-9.5v-5c0-.83-.67-1.5-1.5-1.5Z"/>
    </g>
  </g>
</svg>
